svg/minidisc.svg

<?xml version="1.0" encoding="UTF-8"?><!DOCTYPE svg PUBLIC "-//W3C//DTD SVG 1.1//EN" "http://www.w3.org/Graphics/SVG/1.1/DTD/svg11.dtd"><svg xmlns="http://www.w3.org/2000/svg" xmlns:xlink="http://www.w3.org/1999/xlink" version="1.1" id="mdi-minidisc" width="24" height="24" viewBox="0 0 24 24"><path d="M5,3C3.89,3 3,3.89 3,5V19A2,2 0 0,0 5,21H19A2,2 0 0,0 21,19V5C21,3.89 20.1,3 19,3H5M12,5C15.09,5 17.82,7.04 18.7,10H16A1,1 0 0,0 15,11V13A1,1 0 0,0 16,14H18.71C17.82,16.97 15.09,19 12,19A7,7 0 0,1 5,12A7,7 0 0,1 12,5M12,10A2,2 0 0,0 10,12A2,2 0 0,0 12,14A2,2 0 0,0 14,12A2,2 0 0,0 12,10Z" /></svg>

<svg xmlns="http://www.w3.org/2000/svg" viewBox="0 0 24 24"><path d="M5 3c-1.11 0-2 .89-2 2v14a2 2 0 0 0 2 2h14a2 2 0 0 0 2-2V5a2 2 0 0 0-2-2zm7 2a7 7 0 0 1 6.7 5H16a1 1 0 0 0-1 1v2a1 1 0 0 0 1 1h2.71c-.89 2.97-3.62 5-6.71 5a7 7 0 0 1-7-7 7 7 0 0 1 7-7m0 5a2 2 0 0 0-2 2 2 2 0 0 0 2 2 2 2 0 0 0 2-2 2 2 0 0 0-2-2"/></svg>
